ressources/icons/edit-redo.svg

<svg height="16" viewBox="0 0 16 16" width="16" xmlns="http://www.w3.org/2000/svg"><path d="m9 2v2h-3c-2.7527 0-5 2.2473-5 5s2.2473 5 5 5h5v-2h-5c-1.6793 0-3-1.3207-3-3s1.3207-3 3-3h3v2l5-3z" fill="#404040"/></svg>

<svg xmlns="http://www.w3.org/2000/svg" width="16" height="16" viewBox="0 0 16 16">
 <defs>
  <style id="current-color-scheme" type="text/css">
   .ColorScheme-Text { color:#404040; } .ColorScheme-Highlight { color:#5294e2; }
  </style>
 </defs>
 <path style="fill:currentColor" class="ColorScheme-Text" d="M 9 2 L 9 4 L 6 4 C 3.2473 4 1 6.2473 1 9 C 1 11.7527 3.2473 14 6 14 L 11 14 L 11 12 L 6 12 C 4.3207 12 3 10.6793 3 9 C 3 7.3207 4.3207 6 6 6 L 9 6 L 9 8 L 14 5 L 9 2 z"/>
</svg>
